Komodo/actions/scalable/package-upgrade.svg

<?xml version="1.0" encoding="UTF-8" standalone="no"?>
<!-- Created with Inkscape (http://www.inkscape.org/) -->
<svg id="svg2408" xmlns:rdf="http://www.w3.org/1999/02/22-rdf-syntax-ns#" xmlns="http://www.w3.org/2000/svg" height="96" width="96" version="1.0" xmlns:cc="http://creativecommons.org/ns#" xmlns:xlink="http://www.w3.org/1999/xlink" xmlns:dc="http://purl.org/dc/elements/1.1/">
 <defs id="defs2410">
  <linearGradient id="ButtonShadow" x1="45.448" gradientUnits="userSpaceOnUse" y1="92.54" gradientTransform="scale(1.0059 .99417)" x2="45.448" y2="7.0165">
   <stop id="stop3750" offset="0"/>
   <stop id="stop3752" style="stop-opacity:.58824" offset="1"/>
  </linearGradient>
  <linearGradient id="linearGradient3737">
   <stop id="stop3739" style="stop-color:#fff" offset="0"/>
   <stop id="stop3741" style="stop-color:#fff;stop-opacity:0" offset="1"/>
  </linearGradient>
  <filter id="filter3174">
   <feGaussianBlur id="feGaussianBlur3176" stdDeviation="1.71"/>
  </filter>
  <linearGradient id="linearGradient3188" x1="36.357" xlink:href="#linearGradient3737" gradientUnits="userSpaceOnUse" x2="36.357" y1="6" y2="63.893"/>
  <filter id="filter3794" y="-.192" width="1.384" x="-.192" height="1.384">
   <feGaussianBlur id="feGaussianBlur3796" stdDeviation="5.28"/>
  </filter>
  <linearGradient id="linearGradient3613" x1="48" xlink:href="#linearGradient3737" gradientUnits="userSpaceOnUse" x2="48" y1="20.221" y2="138.66"/>
  <radialGradient id="radialGradient3619" xlink:href="#linearGradient3737" gradientUnits="userSpaceOnUse" cy="90.172" cx="48" gradientTransform="matrix(1.1573 0 0 .99591 -7.551 .19713)" r="42"/>
  <clipPath id="clipPath3613" clipPathUnits="userSpaceOnUse">
   <rect id="rect3615" style="fill:#fff" rx="6" ry="6" height="84" width="84" y="6" x="6"/>
  </clipPath>
  <linearGradient id="linearGradient3617" y2="5.9877" gradientUnits="userSpaceOnUse" y1="90" x2="48" x1="48">
   <stop id="stop3657" style="stop-color:#7ea424" offset="0"/>
   <stop id="stop3659" style="stop-color:#c6ef65" offset="1"/>
  </linearGradient>
  <linearGradient id="ButtonShadow-0" x1="45.448" gradientUnits="userSpaceOnUse" y1="92.54" gradientTransform="matrix(1.0059 0 0 .99417 100 0)" x2="45.448" y2="7.0165">
   <stop id="stop3750-8" offset="0"/>
   <stop id="stop3752-5" style="stop-opacity:.58824" offset="1"/>
  </linearGradient>
  <linearGradient id="linearGradient3780" x1="32.251" xlink:href="#ButtonShadow-0" gradientUnits="userSpaceOnUse" y1="6.1317" gradientTransform="matrix(1.0238 0 0 1.0119 -1.1429 -98.071)" x2="32.251" y2="90.239"/>
  <linearGradient id="linearGradient3721" x1="32.251" xlink:href="#ButtonShadow-0" gradientUnits="userSpaceOnUse" y1="6.1317" gradientTransform="translate(0,-97)" x2="32.251" y2="90.239"/>
  <linearGradient id="linearGradient3090" x1="10.009" gradientUnits="userSpaceOnUse" x2="10.009" gradientTransform="matrix(2.7635 0 0 3.2231 15.34 14)" y1="16.754" y2="3.1026">
   <stop id="stop3610" style="stop-color:#4f7724" offset="0"/>
   <stop id="stop3612" style="stop-color:#94c351" offset="1"/>
  </linearGradient>
 </defs>
 <metadata id="metadata2413">
  <rdf:RDF>
   <cc:Work rdf:about="">
    <dc:format>image/svg+xml</dc:format>
    <dc:type rdf:resource="http://purl.org/dc/dcmitype/StillImage"/>
    <dc:title/>
   </cc:Work>
  </rdf:RDF>
 </metadata>
 <g id="layer2" style="display:none">
  <rect id="rect3745" style="opacity:.9;filter:url(#filter3174);fill:url(#ButtonShadow)" rx="6" ry="6" height="85" width="86" y="7" x="5"/>
 </g>
 <g id="layer3">
  <path id="path3786" style="opacity:.08;fill:url(#linearGradient3780)" transform="scale(1,-1)" d="m12-95.031c-5.5111 0-10.031 4.5202-10.031 10.031v71c0 5.5111 4.5202 10.031 10.031 10.031h72c5.5111 0 10.031-4.5202 10.031-10.031v-71c0-5.5111-4.5202-10.031-10.031-10.031h-72z"/>
  <path id="path3778" style="opacity:.1;fill:url(#linearGradient3780)" transform="scale(1,-1)" d="m12-94.031c-4.9716 0-9.0312 4.0596-9.0312 9.0312v71c0 4.9716 4.0596 9.0312 9.0312 9.0312h72c4.9716 0 9.0312-4.0596 9.0312-9.0312v-71c0-4.9716-4.0596-9.0312-9.0312-9.0312h-72z"/>
  <path id="path3770" style="opacity:.2;fill:url(#linearGradient3780)" transform="scale(1,-1)" d="m12-93c-4.4091 0-8 3.5909-8 8v71c0 4.4091 3.5909 8 8 8h72c4.4091 0 8-3.5909 8-8v-71c0-4.4091-3.5909-8-8-8h-72z"/>
  <rect id="rect3723" style="opacity:.3;fill:url(#linearGradient3780)" transform="scale(1,-1)" rx="7" ry="7" height="85" width="86" y="-92" x="5"/>
  <rect id="rect3716" ry="6" style="opacity:.45;fill:url(#linearGradient3721)" rx="6" transform="scale(1,-1)" height="84" width="84" y="-91" x="6"/>
 </g>
 <g id="layer1">
  <rect id="rect2419" style="fill:url(#linearGradient3617)" rx="6" ry="6" height="84" width="84" y="6" x="6"/>
  <path id="rect3728" style="opacity:.35;fill:url(#linearGradient3188)" d="m12 6c-3.324 0-6 2.676-6 6v72c0 0.33472 0.04135 0.6507 0.09375 0.96875 0.0487 0.2956 0.09704 0.59692 0.1875 0.875 0.00988 0.03038 0.020892 0.0636 0.03125 0.09375 0.098865 0.28777 0.23488 0.54745 0.375 0.8125 0.14459 0.27351 0.31562 0.53562 0.5 0.78125 0.18438 0.24564 0.37378 0.47347 0.59375 0.6875 0.43995 0.42806 0.94291 0.81453 1.5 1.0938 0.27854 0.13961 0.57347 0.24695 0.875 0.34375-0.2562-0.10022-0.48671-0.23627-0.71875-0.375-0.00741-0.0044-0.023866 0.0045-0.03125 0-0.031933-0.0193-0.062293-0.04251-0.09375-0.0625-0.1204-0.0767-0.23102-0.16351-0.34375-0.25-0.10617-0.0808-0.21328-0.16111-0.3125-0.25-0.1778-0.162-0.3473-0.346-0.4999-0.531-0.1075-0.131-0.2183-0.266-0.3124-0.407-0.0251-0.038-0.0385-0.086-0.0626-0.125-0.0647-0.103-0.1302-0.204-0.1874-0.312-0.1011-0.195-0.2057-0.416-0.2813-0.625-0.008-0.022-0.0236-0.041-0.0313-0.063-0.0318-0.092-0.0358-0.187-0.0624-0.281-0.0304-0.107-0.0704-0.203-0.0938-0.313-0.0729-0.341-0.125-0.698-0.125-1.062v-72c0-2.782 2.2182-5 5-5h72c2.7818 0 5 2.2182 5 5v72c0 0.3643-0.05212 0.72099-0.125 1.0625-0.04415 0.20689-0.08838 0.39766-0.15625 0.59375-0.0077 0.02195-0.0233 0.04069-0.03125 0.0625-0.06274 0.17374-0.13838 0.36745-0.21875 0.53125-0.04158 0.0828-0.07904 0.16995-0.125 0.25-0.0546 0.09721-0.12677 0.18835-0.1875 0.28125-0.09411 0.14096-0.20492 0.276-0.3125 0.40625-0.14317 0.17445-0.30314 0.347-0.46875 0.5-0.01117 0.0102-0.01998 0.02115-0.03125 0.03125-0.13839 0.12556-0.28509 0.23444-0.4375 0.34375-0.10257 0.07315-0.20432 0.15336-0.3125 0.21875-0.0074 0.0045-0.02384-0.0044-0.03125 0-0.23204 0.13873-0.46255 0.27478-0.71875 0.375 0.30153-0.0968 0.59646-0.20414 0.875-0.34375 0.55709-0.27922 1.0601-0.66569 1.5-1.0938 0.21997-0.21403 0.40937-0.44186 0.59375-0.6875s0.35541-0.50774 0.5-0.78125c0.14012-0.26505 0.27614-0.52473 0.375-0.8125 0.01041-0.03078 0.02133-0.06274 0.03125-0.09375 0.09046-0.27808 0.1388-0.5794 0.1875-0.875 0.053-0.318 0.094-0.634 0.094-0.969v-72c0-3.324-2.676-6-6-6h-72z"/>
  <path id="path3615" style="opacity:.15;fill:url(#radialGradient3619)" d="m12 90c-3.324 0-6-2.676-6-6v-72c0-0.33472 0.04135-0.6507 0.09375-0.96875 0.0487-0.2956 0.09704-0.59692 0.1875-0.875 0.0099-0.03 0.0209-0.063 0.0313-0.094 0.0989-0.2873 0.2349-0.547 0.375-0.812 0.1446-0.2735 0.3156-0.5356 0.5-0.7812 0.1844-0.2457 0.3738-0.4735 0.5937-0.6876 0.44-0.428 0.943-0.8145 1.5-1.0937 0.2786-0.1396 0.5735-0.2469 0.8748-0.3437-0.256 0.1002-0.4865 0.2362-0.7185 0.375-0.00741 0.0044-0.023866-0.0045-0.03125 0-0.031933 0.0193-0.062293 0.04251-0.09375 0.0625-0.1204 0.0767-0.23102 0.16351-0.34375 0.25-0.10617 0.0808-0.21328 0.16111-0.3125 0.25-0.1779 0.1614-0.3474 0.3453-0.5 0.5312-0.1075 0.1303-0.2183 0.2653-0.3124 0.4063-0.0251 0.0383-0.0385 0.0858-0.0626 0.125-0.0647 0.103-0.1302 0.2045-0.1874 0.3124-0.1011 0.1948-0.2057 0.4158-0.2813 0.625-0.008 0.0219-0.0236 0.0406-0.0313 0.0626-0.0318 0.0919-0.0358 0.1868-0.0624 0.2812-0.0304 0.1066-0.0704 0.203-0.0938 0.3125-0.0729 0.3415-0.125 0.6985-0.125 1.0625v72c0 2.7818 2.2182 5 5 5h72c2.7818 0 5-2.2182 5-5v-72c0-0.364-0.052-0.721-0.125-1.0625-0.044-0.2069-0.088-0.3977-0.156-0.5937-0.008-0.022-0.024-0.0407-0.031-0.0626-0.063-0.1737-0.139-0.3674-0.219-0.5312-0.042-0.0828-0.079-0.17-0.125-0.25-0.055-0.0972-0.127-0.1884-0.188-0.2812-0.094-0.141-0.205-0.276-0.312-0.4063-0.143-0.1745-0.303-0.347-0.469-0.5-0.011-0.0102-0.02-0.0211-0.031-0.0313-0.139-0.1255-0.285-0.2344-0.438-0.3437-0.102-0.0731-0.204-0.1534-0.312-0.2187-0.0074-0.0045-0.02384 0.0044-0.03125 0-0.23204-0.13873-0.46255-0.27478-0.71875-0.375 0.30153 0.0968 0.59646 0.20414 0.875 0.34375 0.55709 0.27922 1.0601 0.66569 1.5 1.0938 0.21997 0.21403 0.40937 0.44186 0.59375 0.6875s0.35541 0.50774 0.5 0.78125c0.14012 0.26505 0.27614 0.52473 0.375 0.8125 0.01041 0.03078 0.02133 0.06274 0.03125 0.09375 0.09046 0.27808 0.1388 0.5794 0.1875 0.875 0.053 0.318 0.094 0.634 0.094 0.969v72c0 3.324-2.676 6-6 6h-72z"/>
 </g>
 <g id="layer5">
  <rect id="rect3171" style="opacity:.1;filter:url(#filter3794);stroke:#fff;stroke-linecap:round;stroke-width:.5;fill:url(#linearGradient3613)" clip-path="url(#clipPath3613)" rx="12" ry="12" height="66" width="66" y="15" x="15"/>
 </g>
 <g id="layer4">
  <path id="Symbol" style="fill:url(#linearGradient3090)" d="m38.093 68v-18.094h-11.093l21-25.906 21 25.906h-11v18.094z"/>
  <path id="path3958" style="opacity:.2;fill:#fff" d="m27.812 49.906l-0.812 1h11.094v-1h-10.282zm30.188 0v1h11l-0.812-1h-10.188zm-19.906 18.094v1h19.906v-1h-19.906z"/>
  <path id="path3967" style="opacity:.15" d="m48 24l-21 25.906h0.812l20.188-24.906 20.188 24.906h0.812l-21-25.906z"/>
 </g>
</svg>

<?xml version="1.0" encoding="UTF-8" standalone="no"?>
<!-- Created with Inkscape (http://www.inkscape.org/) -->

<svg
   xmlns:dc="http://purl.org/dc/elements/1.1/"
   xmlns:cc="http://creativecommons.org/ns#"
   xmlns:rdf="http://www.w3.org/1999/02/22-rdf-syntax-ns#"
   xmlns:svg="http://www.w3.org/2000/svg"
   xmlns="http://www.w3.org/2000/svg"
   xmlns:xlink="http://www.w3.org/1999/xlink"
   xmlns:sodipodi="http://sodipodi.sourceforge.net/DTD/sodipodi-0.dtd"
   xmlns:inkscape="http://www.inkscape.org/namespaces/inkscape"
   width="96"
   height="96"
   id="svg11037"
   version="1.1"
   inkscape:version="0.48.3.1 r9886"
   sodipodi:docname="templat.svg">
  <defs
     id="defs11039">
    <linearGradient
       y2="1046.1001"
       x2="47.999954"
       y1="962.62189"
       x1="47.999954"
       gradientTransform="matrix(1.15,0,0,1.15,-7.1999462,-150.65291)"
       gradientUnits="userSpaceOnUse"
       id="linearGradient3886"
       xlink:href="#linearGradient3795"
       inkscape:collect="always" />
    <linearGradient
       id="linearGradient3795">
      <stop
         style="stop-color:#13a6fd;stop-opacity:1;"
         offset="0"
         id="stop3797" />
      <stop
         style="stop-color:#2975b6;stop-opacity:1;"
         offset="1"
         id="stop3799" />
    </linearGradient>
    <linearGradient
       y2="1046.1001"
       x2="47.999954"
       y1="962.62189"
       x1="47.999954"
       gradientTransform="matrix(1.15,0,0,1.15,-7.1999462,-150.65292)"
       gradientUnits="userSpaceOnUse"
       id="linearGradient11642"
       xlink:href="#linearGradient3655"
       inkscape:collect="always" />
    <clipPath
       clipPathUnits="userSpaceOnUse"
       id="clipPath3009">
      <path
         id="path3011"
         d="m -2,956.36218 -96,0 0,33.5624 96,25.68742 0,-59.24982 z"
         style="opacity:0.15;fill:#ffffff;fill-opacity:1;stroke:none"
         inkscape:connector-curvature="0" />
    </clipPath>
    <linearGradient
       x1="48"
       y1="90"
       x2="48"
       y2="5.9877172"
       id="linearGradient3617"
       xlink:href="#linearGradient3655"
       gradientUnits="userSpaceOnUse" />
    <linearGradient
       x1="10.31979"
       y1="21"
       x2="10.31979"
       y2="0.99929649"
       id="linearGradient3655"
       gradientUnits="userSpaceOnUse">
      <stop
         id="stop3657"
         style="stop-color:#7ea424;stop-opacity:1"
         offset="0" />
      <stop
         id="stop3659"
         style="stop-color:#c6ef65;stop-opacity:1"
         offset="1" />
    </linearGradient>
    <linearGradient
       gradientTransform="translate(-96.487322,952.36217)"
       y2="5.9877172"
       x2="48"
       y1="90"
       x1="48"
       gradientUnits="userSpaceOnUse"
       id="linearGradient3046"
       xlink:href="#linearGradient3655"
       inkscape:collect="always" />
    <linearGradient
       x1="10.008834"
       y1="16.75395"
       x2="10.008834"
       y2="3.1025834"
       id="linearGradient3090"
       xlink:href="#linearGradient3608"
       gradientUnits="userSpaceOnUse"
       gradientTransform="matrix(2.7635381,0,0,3.2231205,15.340206,14)" />
    <linearGradient
       id="linearGradient3608">
      <stop
         id="stop3610"
         style="stop-color:#4f7724;stop-opacity:1"
         offset="0" />
      <stop
         id="stop3612"
         style="stop-color:#94c351;stop-opacity:1"
         offset="1" />
    </linearGradient>
    <linearGradient
       x1="48"
       y1="20.220806"
       x2="48"
       y2="138.66119"
       id="linearGradient3613"
       xlink:href="#linearGradient3737"
       gradientUnits="userSpaceOnUse" />
    <linearGradient
       id="linearGradient3737">
      <stop
         id="stop3739"
         style="stop-color:#ffffff;stop-opacity:1"
         offset="0" />
      <stop
         id="stop3741"
         style="stop-color:#ffffff;stop-opacity:0"
         offset="1" />
    </linearGradient>
    <clipPath
       id="clipPath3613">
      <rect
         width="84"
         height="84"
         rx="6"
         ry="6"
         x="6"
         y="6"
         id="rect3615"
         style="fill:#ffffff;fill-opacity:1;fill-rule:nonzero;stroke:none" />
    </clipPath>
    <filter
       x="-0.192"
       y="-0.192"
       width="1.3839999"
       height="1.3839999"
       color-interpolation-filters="sRGB"
       id="filter3794">
      <feGaussianBlur
         id="feGaussianBlur3796"
         stdDeviation="5.28" />
    </filter>
    <linearGradient
       y2="138.66119"
       x2="48"
       y1="20.220806"
       x1="48"
       gradientUnits="userSpaceOnUse"
       id="linearGradient3086"
       xlink:href="#linearGradient3737"
       inkscape:collect="always" />
  </defs>
  <sodipodi:namedview
     id="base"
     pagecolor="#ffffff"
     bordercolor="#666666"
     borderopacity="1.0"
     inkscape:pageopacity="0.0"
     inkscape:pageshadow="2"
     inkscape:zoom="3.959798"
     inkscape:cx="29.118614"
     inkscape:cy="59.964634"
     inkscape:document-units="px"
     inkscape:current-layer="layer1"
     showgrid="false"
     inkscape:window-width="1280"
     inkscape:window-height="750"
     inkscape:window-x="0"
     inkscape:window-y="22"
     inkscape:window-maximized="1"
     showguides="true"
     inkscape:guide-bbox="true">
    <sodipodi:guide
       orientation="0,1"
       position="-24.748737,0"
       id="guide11064" />
    <sodipodi:guide
       orientation="0,1"
       position="-23.233509,96"
       id="guide11066" />
    <sodipodi:guide
       orientation="1,0"
       position="0,54.800776"
       id="guide11068" />
    <sodipodi:guide
       orientation="1,0"
       position="96,51.012704"
       id="guide11070" />
    <sodipodi:guide
       orientation="0,1"
       position="-18.94036,48"
       id="guide11072" />
    <sodipodi:guide
       orientation="1,0"
       position="48,79.296975"
       id="guide11074" />
    <sodipodi:guide
       orientation="1,0"
       position="2,75.508903"
       id="guide11076" />
    <sodipodi:guide
       orientation="0,1"
       position="-77.27667,2"
       id="guide11078" />
    <sodipodi:guide
       orientation="1,0"
       position="94,77.781746"
       id="guide11080" />
    <sodipodi:guide
       orientation="0,1"
       position="-65.912454,94"
       id="guide11082" />
  </sodipodi:namedview>
  <metadata
     id="metadata11042">
    <rdf:RDF>
      <cc:Work
         rdf:about="">
        <dc:format>image/svg+xml</dc:format>
        <dc:type
           rdf:resource="http://purl.org/dc/dcmitype/StillImage" />
        <dc:title></dc:title>
      </cc:Work>
    </rdf:RDF>
  </metadata>
  <g
     inkscape:label="Layer 1"
     inkscape:groupmode="layer"
     id="layer1"
     transform="translate(0,-956.36218)">
    <rect
       x="2"
       y="958.36218"
       width="92"
       height="92"
       style="fill:url(#linearGradient11642);fill-opacity:1.0"
       id="rect3867"
       rx="25"
       ry="25" />
    <g
       transform="translate(0,956.36218)"
       id="layer5">
      <rect
         width="66"
         height="66"
         rx="12"
         ry="12"
         x="15"
         y="15"
         clip-path="url(#clipPath3613)"
         id="rect3171"
         style="opacity:0.1;fill:url(#linearGradient3086);fill-opacity:1;fill-rule:nonzero;stroke:#ffffff;stroke-width:0.5;stroke-linecap:round;stroke-linejoin:miter;stroke-miterlimit:4;stroke-opacity:1;stroke-dasharray:none;stroke-dashoffset:0;filter:url(#filter3794)" />
    </g>
    <g
       transform="translate(0,956.36218)"
       id="layer4">
      <path
         d="m 38.092783,68 0,-18.09375 L 27,49.90625 48,24 l 21,25.90625 -11,0 L 58,68 z"
         inkscape:connector-curvature="0"
         id="Symbol"
         style="fill:url(#linearGradient3090);fill-opacity:1;stroke:none;display:inline" />
      <path
         d="m 27.8125,49.90625 -0.8125,1 11.09375,0 0,-1 -10.28125,0 z m 30.1875,0 0,1 11,0 -0.8125,-1 -10.1875,0 z M 38.09375,68 l 0,1 L 58,69 58,68 38.09375,68 z"
         inkscape:connector-curvature="0"
         id="path3958"
         style="opacity:0.2;fill:#ffffff;fill-opacity:1;stroke:none;display:inline" />
      <path
         d="m 48,24 -21,25.90625 0.8125,0 L 48,25 68.1875,49.90625 69,49.90625 48,24 z"
         inkscape:connector-curvature="0"
         id="path3967"
         style="opacity:0.15;fill:#000000;fill-opacity:1;stroke:none;display:inline" />
    </g>
    <rect
       ry="25"
       rx="25"
       id="rect3003"
       style="opacity:0.15;fill:#ffffff;fill-opacity:1"
       height="92"
       width="92"
       y="958.36218"
       x="-96"
       clip-path="url(#clipPath3009)"
       transform="translate(98,0)" />
  </g>
</svg>
